!!!COM: Bach, Johann Sebastian
!!!OPR: Die Kunst der Fuge
!!!XEN: The Art of Fugue
!!!OTL:
!!!OMV: 12
!!!SCT: BWV 1080
!!!SCA: Thematisch-systematisches Verzeichnis der musikalischen Werke Johann Sebastian Bach: Bach-Werke-Verzeichnis (Schmieder)
!!!YOR: Bach Gesellschaft Edition xxv,1
!!!EED: Frances Bennion
!!!ENC: Frances Bennion
!!!CDT: 1685/3//-1750/7/28/
!!!OCY: Deutschland
!!!YEC: Copyright (c) 1994, 2000 Center for Computer Assisted Research in the Humanities
!!!YEM: Rights to all derivative editions reserved.
!!!YEM: Refer to licensing agreement for further details.
!!!YEN: United States of America
**kern	**kern	**kern	**kern	**kern	**kern	**kern	**kern
*k[b-]	*k[b-]	*k[b-]	*k[b-]	*k[b-]	*k[b-]	*k[b-]	*k[b-]
*d:	*d:	*d:	*d:	*d:	*d:	*d:	*d:
*clefG	*clefG	*clefC	*clefC	*clefG	*clefG	*clefC	*clefC
*M3/2	*M3/2	*M3/2	*M3/2	*M3/2	*M3/2	*M3/2	*M3/2
=1	=1	=1	=1	=1	=1	=1	=1
1.r	1.r	1.r	2D	2a	1.r	1.r	1.r
.	.	.	1A	1d	.	.	.
=2	=2	=2	=2	=2	=2	=2	=2
1.r	1.r	1.r	2F	2f	1.r	1.r	1.r
.	.	.	1D	1a	.	.	.
=3	=3	=3	=3	=3	=3	=3	=3
1.r	1.r	1.r	2C#	2b-	1.r	1.r	1.r
.	.	.	2D	2a	.	.	.
.	.	.	2E	2g	.	.	.
=4	=4	=4	=4	=4	=4	=4	=4
1.r	1.r	1.r	2.F	2.f	1.r	1.r	1.r
.	.	.	4G	4e	.	.	.
.	.	.	4F	4f	.	.	.
.	.	.	4E	4g	.	.	.
=5	=5	=5	=5	=5	=5	=5	=5
1.r	1.r	2A	2D	2a	2d	1.r	1.r
.	.	1d	4r	4r	1A	.	.
.	.	.	4E	4g	.	.	.
.	.	.	4F	4f	.	.	.
.	.	.	4G	4e	.	.	.
=6	=6	=6	=6	=6	=6	=6	=6
1.r	1.r	2c	2A	2d	2B-	1.r	1.r
.	.	1A	4r	4r	1d	.	.
.	.	.	4B	4c	.	.	.
.	.	.	4c	4B-	.	.	.
.	.	.	4d	4A	.	.	.
=7	=7	=7	=7	=7	=7	=7	=7
1.r	1.r	2G#	4e	4G	2e-	1.r	1.r
.	.	.	4d	4A	.	.	.
.	.	2A	4c	4B-	2d	.	.
.	.	.	4B	4c	.	.	.
.	.	2B	4A	4d	2c	.	.
.	.	.	4G#	4e-	.	.	.
=8	=8	=8	=8	=8	=8	=8	=8
1.r	1.r	2.c	4A	4d	2.B-	1.r	1.r
.	.	.	8G	8e	.	.	.
.	.	.	8F	8f#	.	.	.
.	.	.	2.E	2.g	.	.	.
.	.	4d	.	.	4A	.	.
.	.	4c	.	.	4B	.	.
.	.	4B	8D	8a	4c#	.	.
.	.	.	8E	8g	.	.	.
=9	=9	=9	=9	=9	=9	=9	=9
1.r	1.r	2.A	4F	4f	2.d	1.r	1.r
.	.	.	8E	8g	.	.	.
.	.	.	8D	8a	.	.	.
.	.	.	2.C#	2.b-	.	.	.
.	.	4B-	.	.	4c	.	.
.	.	4A	.	.	4d	.	.
.	.	4G	8BB	8cc	4e	.	.
.	.	.	8C#	8b-	.	.	.
=10	=10	=10	=10	=10	=10	=10	=10
1.r	2d	8F	2D	2a	8f	2A	1.r
.	.	8G	.	.	8e	.	.
.	.	8F	.	.	8f	.	.
.	.	8E	.	.	8g	.	.
.	1a	4D	4r	4r	4a	1D	.
.	.	4A	4FF	4ff	4d	.	.
.	.	4B	4GG	4ee	4c	.	.
.	.	4c#	4AA	4dd	4B-	.	.
=11	=11	=11	=11	=11	=11	=11	=11
1.r	2f	2d	4BB-	4cc	2A	2F	1.r
.	.	.	4AA	4dd	.	.	.
.	1d	4r	1BB-	1cc#	4r	1A	.
.	.	4e	.	.	4G	.	.
.	.	4f	.	.	4F	.	.
.	.	4g	.	.	4E	.	.
=12	=12	=12	=12	=12	=12	=12	=12
1.r	2c#	4a	[1.AA	[1.dd	4D	2B-	1.r
.	.	4g	.	.	4E	.	.
.	2d	4f	.	.	4F	2A	.
.	.	4e	.	.	4G	.	.
.	2e	4d	.	.	4A	2G	.
.	.	4c#	.	.	4B-	.	.
=13	=13	=13	=13	=13	=13	=13	=13
1.r	2.f	2.d	8AA]	8dd]	2.A	2.F	1.r
.	.	.	8GG	8ee	.	.	.
.	.	.	8FF	8ff	.	.	.
.	.	.	8GG	8ee	.	.	.
.	.	.	4AA	4dd	.	.	.
.	4g	4c#	4BB-	4cc#	4B-	4E	.
.	4f	4d	4AA	4dd	4A	4F	.
.	4e	4e	4GG	4ee	4G	4G	.
=14	=14	=14	=14	=14	=14	=14	=14
2a	2d	4A	4FF	4ff	4d	2A	2D
.	.	4G	4EE	4gg	4e	.	.
1dd	4r	4F	2DD	2aa	4f	4r	1AA
.	4e	4E	.	.	4g	4G	.
.	4f	4D	4r	4r	4a	4F	.
.	4g	4E	4BB-	4cc#	4g	4E	.
=15	=15	=15	=15	=15	=15	=15	=15
2cc	2a	4F	8AA	8dd	4f	2D	2BB-
.	.	.	8GG	8ee	.	.	.
.	.	4G	8FF	8ff	4e	.	.
.	.	.	8EE	8gg	.	.	.
1a	4r	4A	2FF	2ff	4d	4r	1D
.	4b	4G#	.	.	4e-	4C	.
.	4cc	4A	4r	4r	4d	4BB-	.
.	4dd	4B	4F	4f#	4c	4AA	.
=16	=16	=16	=16	=16	=16	=16	=16
2g#	4ee	4c	8E	8g	4B-	4GG	2E-
.	.	.	8D	8a	.	.	.
.	4dd	4d	8C	8b-	4A	4AA	.
.	.	.	8BB	8cc	.	.	.
2a	4cc	[1e	2C	2b-	[1G	4BB-	2D
.	4b	.	.	.	.	4C	.
2b	4a	.	4r	4r	.	4D	2C
.	4g#	.	4E	4g	.	4E-	.
=17	=17	=17	=17	=17	=17	=17	=17
2.cc	2.a	4e]	8AA	8dd	4G]	2.D	2.BB-
.	.	.	8BB	8cc	.	.	.
.	.	4A	8C	8b-	4d	.	.
.	.	.	8D	8a	.	.	.
.	.	2E	2E	2g	2g	.	.
4dd	4b-	.	.	.	.	4C#	4AA
4cc	4a	4r	2EE	2gg	4r	4D	4BB
4b-	4g	4d	.	.	4A	4E	4C#
=18	=18	=18	=18	=18	=18	=18	=18
2.a	2.f	4c	8FF	8ff	4B-	2.F	2.D
.	.	.	8GG	8ee	.	.	.
.	.	4F	8AA	8dd	4f	.	.
.	.	.	8BB-	8cc	.	.	.
.	.	2C	2C	2b-	2b-	.	.
4b-	4g	.	.	.	.	4E	4C#
4a	4f	4r	2CC	2bb-	4r	4F	4D
4g	4e	4B-	.	.	4c#	4G	4E
=19	=19	=19	=19	=19	=19	=19	=19
2.f	2.d	4A	8DD	8aa	4d	2.A	2.F
.	.	.	8EE	8gg	.	.	.
.	.	8d	8FF	8ff	8A	.	.
.	.	8e	8GG	8ee	8G	.	.
.	.	4f	2AA	2dd	4F	.	.
4g	4e	4c#	.	.	4B-	4G	4E
4f	4d	4d	4r	4r	4A	4A	4F
4e	4c#	4G	4BB-	4cc#	4e	4B-	4G
=20	=20	=20	=20	=20	=20	=20	=20
4f	4d	2.A	4AA	4dd	2.d	4A	4F
4g	4e	.	4GG	4ee	.	4G	4E
2.a	2.f	.	4FF	4ff	.	2.F	2.D
.	.	4G	4EE	4gg	4e	.	.
.	.	4F	2DD	2aa	4f	.	.
8b	8g	4E	.	.	4g	8E	8C
8cc#	8e	.	.	.	.	8G	8BB-
=21	=21	=21	=21	=21	=21	=21	=21
8dd	4f	[2D	1.r	1.r	[2a	4F	8AA
8ee	.	.	.	.	.	.	8GG
8ff	4a	.	.	.	.	4D	8FF
8gg	.	.	.	.	.	.	8EE
[2aa	4d	8D]	.	.	8a]	4A	[2DD
.	.	8E	.	.	8g	.	.
.	8A	8F	.	.	8f	8d	.
.	8B	8G	.	.	8e	8c	.
8aa]	4c#	[2A	.	.	[2d	4B-	8DD]
8bb-	.	.	.	.	.	.	8CC#
8aa	8d	.	.	.	.	8A	8DD
8gg	8e	.	.	.	.	8G	8EE
=22	=22	=22	=22	=22	=22	=22	=22
4ff	4d	8A]	1r	1r	8d]	4A	4FF
.	.	8a	.	.	8D	.	.
4ee	4c#	8A	.	.	8d	4B-	4GG
.	.	8G	.	.	8e	.	.
2.dd	8d	8F	.	.	8f	8A	2.AA
.	8e	8E	.	.	8g	8G	.
.	8f	8D	.	.	8a	8F	.
.	8g	8E	.	.	8g	8E	.
.	[2a	4F	8D	8a	4f	[2D	.
.	.	.	8E	8g	.	.	.
8cc#	.	4f	8F	8f	4F	.	8BB-
8b	.	.	8G	8e	.	.	8C
=23	=23	=23	=23	=23	=23	=23	=23
2cc#	2.a]	2e	8A	8d	2G	2.D]	2BB-
.	.	.	8B-	8c#	.	.	.
.	.	.	8A	8d	.	.	.
.	.	.	8G	8e	.	.	.
2.dd	.	2.f	4F	4f	2.F	.	2.AA
.	8b-	.	4E	4g	.	8C#	.
.	8cc	.	.	.	.	8BB	.
.	2b-	.	4D	4a	.	2C#	.
4ee	.	4g	4C#	4b-	4E	.	4GG
=24	=24	=24	=24	=24	=24	=24	=24
2.ff	4a	2f	4D	4a	2F	4D	2.FF
.	2d	.	8C	8b	.	2A	.
.	.	.	8BB-	8cc#	.	.	.
.	.	[1F	2.AA	2.dd	[1f	.	.
4gg	4e-	.	.	.	.	4G	4EE
4ff	4d	.	.	.	.	4A	4FF
4ee-	4c	.	8GG	8ee	.	4B	4GG
.	.	.	8AA	8dd	.	.	.
=25	=25	=25	=25	=25	=25	=25	=25
1dd	4.B-	4F]	4BB-	4cc	4f]	4.c	1AA
.	.	8G	4GG	4ee	8e	.	.
.	16c	8E	.	.	8g	16B	.
.	16B-	.	.	.	.	16c	.
.	2A	8F#	2D	2a	8f	2d	.
.	.	8A	.	.	8d	.	.
.	.	8B-	.	.	8c	.	.
.	.	8c	.	.	8B	.	.
8r	2r	4d	8r	8r	4A	2r	8r
8dd	.	.	8BB-	8cc	.	.	8AA
8ee	.	4c	8C	8b	4B	.	8GG
8ff#	.	.	8D	8a	.	.	8FF
=26	=26	=26	=26	=26	=26	=26	=26
8gg	8g	8B-	4E-	4g#	8c	8E	8EE
8ff#	8a	8c	.	.	8B	8D	8FF
8gg	8b-	8B-	8D	8a	8c	8C	8EE
8aa	8cc	8A	8C	8b	8d	8BB	8DD
4bb-	[2dd	8G	4BB-	4cc	8e	[2AA	4CC
.	.	8F#	.	.	8f	.	.
2.r	.	8G	4AA	4dd	8e	.	2.r
.	.	8A	.	.	8d	.	.
.	8dd]	8B-	4GG	4ee	8c	8AA]	.
.	8ee-	8c	.	.	8B	8GG#	.
.	8dd	8d	4FF#	4ff	8A	8AA	.
.	8cc	8e-	.	.	8G#	8BB	.
=27	=27	=27	=27	=27	=27	=27	=27
1r	4b-	2d	4GG	4ee	2A	4C	1r
.	4a	.	4AA	4dd	.	4D	.
.	2.g	1r	4BB-	4cc	1r	2.E	.
.	.	.	4AA	4dd	.	.	.
[2dd	.	.	4BB-	4cc	.	.	[2AA
.	8f#	.	4C	4b	.	8F	.
.	8e	.	.	.	.	8G	.
=28	=28	=28	=28	=28	=28	=28	=28
4dd]	2f#	1.r	2D	2a	1.r	2F	4AA]
4cc	.	.	.	.	.	.	4BB
4b-	2.g	.	2E-	2g	.	2.E	4C
4a	.	.	.	.	.	.	4D
4g	.	.	8r	8r	.	.	4E
.	.	.	8E-	8g	.	.	.
4f#	4a	.	8D	8a	.	4D	4F
.	.	.	8C	8b	.	.	.
=29	=29	=29	=29	=29	=29	=29	=29
4g	2.b-	1.r	8BB-	8cc	1.r	2.C	4E
.	.	.	8AA	8dd	.	.	.
4e-	.	.	8GG	8ee	.	.	4G#
.	.	.	8FF#	8ff	.	.	.
[1d	.	.	8GG	8ee	.	.	[1A
.	.	.	8DD	8aa	.	.	.
.	4cc	.	8EE	8gg	.	4BB	.
.	.	.	8FF#	8ff	.	.	.
.	4b-	.	8GG	8ee	.	4C	.
.	.	.	8AA	8dd	.	.	.
.	4a	.	8BB-	8cc	.	4D	.
.	.	.	8C	8b	.	.	.
=30	=30	=30	=30	=30	=30	=30	=30
4d]	2.g	1.r	8BB-	8cc	1.r	2.E	4A]
.	.	.	8AA	8dd	.	.	.
8e-	.	.	8GG	8ee	.	.	8G
8f	.	.	8AA	8dd	.	.	8F
4g	.	.	2BB-	2cc	.	.	4E
4f	4a-	.	.	.	.	4D	4F#
4e-	4g	.	4r	4r	.	4E	4G
4d	4f	.	4BB	4cc	.	4F#	4A
=31	=31	=31	=31	=31	=31	=31	=31
[2c	2.e-	1.r	8C	8b-	1.r	2.G	[2B-
.	.	.	8D	8a	.	.	.
.	.	.	8E-	8g	.	.	.
.	.	.	8C	8b-	.	.	.
8c]	.	.	2AA	2dd	.	.	8B-]
8d	.	.	.	.	.	.	8A
8e-	4g	.	.	.	.	4E	8G
8c	.	.	.	.	.	.	8B-
8d	4f	.	8r	8r	.	4F	8A
8B-	.	.	8D	8a	.	.	8c
8c	4e-	.	8E-	8g	.	4G	8B-
8A	.	.	8F	8f	.	.	8d
=32	=32	=32	=32	=32	=32	=32	=32
[2B-	[2d	8B-	4G	4e	8c	[2A	[2c
.	.	8c	.	.	8B-	.	.
.	.	8d	8F	8f	8A	.	.
.	.	8e-	8E-	8g	8G	.	.
8B-]	8d]	[2f	4D	4a	[2F	8A]	8c]
8c	8e-	.	.	.	.	8G	8B-
8d	8f	.	4C	4b-	.	8F	8A
8e-	8e-	.	.	.	.	8G	8G
[2f	8d	8f]	4BB-	4cc	8F]	8A	[2F
.	8e-	8g	.	.	8E	8G	.
.	8d	8f	4AA	4dd	8F	8A	.
.	8c	8e-	.	.	8G	8B-	.
=33	=33	=33	=33	=33	=33	=33	=33
2f]	4B-	4d	4BB-	4cc	4A	4c	2F]
.	8A	4c	4C	4b-	4B-	8d	.
.	8G	.	.	.	.	8e	.
8ff	[2F	2.B-	4D	4a	2.c	[2f	8FF
8ee-	.	.	.	.	.	.	8GG
8dd	.	.	4E-	4g	.	.	8AA
8cc	.	.	.	.	.	.	8BB-
4dd	8F]	.	[2F	[2f	.	8f]	4AA
.	8G	.	.	.	.	8e-	.
4ff	8A	8A	.	.	8d	8d	4FF
.	8B-	8G	.	.	8e-	8c	.
=34	=34	=34	=34	=34	=34	=34	=34
8cc	2c	2A	8F]	8f]	2d	2B-	8BB-
8b-	.	.	8G	8e	.	.	8C
8a	.	.	8F	8f	.	.	8D
8g	.	.	8E-	8g	.	.	8E
[2f	8d	2.B-	[2D	[2a	2.c	8A	[2F
.	8e-	.	.	.	.	8G	.
.	8d	.	.	.	.	8A	.
.	8c	.	.	.	.	8B-	.
8f]	[2B-	.	8D]	8a]	.	[2c	8F]
8g	.	.	8E-	8g	.	.	8E
8f	.	4c	8D	8a	4B-	.	8F
8e-	.	.	8C	8b-	.	.	8G
=35	=35	=35	=35	=35	=35	=35	=35
8d	8B-]	2.d	4BB-	4cc	2.A	8c]	8A
8e	8c	.	.	.	.	8B-	8G
8f#	8d	.	8AA	8dd	.	8A	8F
8g	8e-	.	8GG	8ee	.	8G	8E
1a	4d	.	2.FF#	2.ff	.	4A	1D
.	8c	4e-	.	.	4G	8B	.
.	8B-	.	.	.	.	8c	.
.	4A	4d	.	.	4A	4d	.
.	4a	4c	8EE	8gg	4B	4D	.
.	.	.	8FF#	8ff	.	.	.
=36	=36	=36	=36	=36	=36	=36	=36
8b-	2g	[2B-	4GG	4ee	[2c	2E	8C
8a	.	.	.	.	.	.	8D
8b-	.	.	4EE-	4gg	.	.	8C
8cc	.	.	.	.	.	.	8BB-
8dd	2.f	8B-]	2BB-	2cc	8c]	2.F	8AA
8cc	.	8A	.	.	8d	.	8BB-
8dd	.	8B-	.	.	8c	.	8AA
8ee-	.	8c	.	.	8B-	.	8GG
8ff	.	4d	2r	2r	4A	.	8FF
8ee-	.	.	.	.	.	.	8GG
8dd	8g	4B-	.	.	4c	8E	8AA
8cc	8a-	.	.	.	.	8D	8BB-
=37	=37	=37	=37	=37	=37	=37	=37
8b-	8g	[2e-	1.r	1.r	[2G	8E	8C
8a-	8f	.	.	.	.	8F	8D
8g	8e-	.	.	.	.	8G	8E
8a-	8f	.	.	.	.	8F	8D
4b-	8g	8e-]	.	.	8G]	8E	4C
.	8f	8d	.	.	8A	8F	.
2b-	8g	8e-	.	.	8G	8E	2C
.	8a-	8f	.	.	8F	8D	.
.	4g	4e-	.	.	4G	4E	.
8cc	4f	4d	.	.	4A	4F#	8BB-
8dd	.	.	.	.	.	.	8AA
=38	=38	=38	=38	=38	=38	=38	=38
[1.ee-	2e-	8c	1.r	1.r	8B-	2G	[1.GG
.	.	8B-	.	.	8c	.	.
.	.	8c	.	.	8B-	.	.
.	.	8d	.	.	8A	.	.
.	8r	4c	.	.	4B-	8r	.
.	8A	.	.	.	.	8d	.
.	8G	4B-	.	.	4c	8e-	.
.	8B-	.	.	.	.	8c	.
.	8c	4A	.	.	4d	8B-	.
.	8d	.	.	.	.	8A	.
.	8e-	4G	.	.	4e-	8G	.
.	8d	.	.	.	.	8A	.
=39	=39	=39	=39	=39	=39	=39	=39
4ee-]	4c	4A	1.r	1.r	4d	4B-	4GG]
8ff	4A	4F	.	.	4f	4d	8FF
8gg	.	.	.	.	.	.	8EE-
4ff	4B-	4G	.	.	4e-	4c	4FF
4ee-	4c	4A	.	.	4d	4B-	4GG
[2dd	4d	8B-	.	.	8c#	4A	[2AA
.	.	8c	.	.	8B	.	.
.	4f#	8d	.	.	8A	4F	.
.	.	8c	.	.	8B	.	.
=40	=40	=40	=40	=40	=40	=40	=40
2..dd_	8g	4B-	1.r	1.r	4c#	8E	2..AA_
.	8a	.	.	.	.	8D	.
.	8b-	4A	.	.	4d	8C#	.
.	8cc	.	.	.	.	8BB	.
.	8b-	4G	.	.	4e	8C#	.
.	8dd	.	.	.	.	8AA	.
.	8a	4F#	.	.	4f	8D	.
4.dd]	8cc	.	.	.	.	8BB	4.AA]
.	4b-	4G	.	.	4e	4C#	.
8ee	4g	4E	.	.	4g	4E	8GG
8ff	.	.	.	.	.	.	8FF
=41	=41	=41	=41	=41	=41	=41	=41
8ee	4a	4F	1.r	1.r	4f	4D	8GG
8dd]	.	.	.	.	.	.	8AA]
8cc#	4b-	4G	.	.	4e	4C#	8BB-
8dd	.	.	.	.	.	.	8AA
4cc#	4a	8A	.	.	8d	4D	4BB-
.	.	8G	.	.	8e	.	.
4dd	4f	8A	.	.	8d	4F	4AA
.	.	8B-	.	.	8c#	.	.
2ee	8c#	4A	.	.	4d	8B-	2GG
.	8d	.	.	.	.	8A	.
.	8e	4G	.	.	4e	8G	.
.	8c#	.	.	.	.	8B-	.
=42	=42	=42	=42	=42	=42	=42	=42
4a	[2d	8F	8D	8a	8f	[2A	4D
.	.	8G	8E	8g	8e	.	.
2aa	.	4.A	8F	8f	4.d	.	2DD
.	.	.	8G	8e	.	.	.
.	8d]	.	[2A	[2d	.	8A]	.
.	8f	8B	.	.	8c	8F	.
8gg	8e	8c#	.	.	8B-	8G	8EE
8ff	8d	8d	.	.	8A	8A	8FF
8ee	2c#	4e	8A]	8d]	4G	2B-	8GG
8gg	.	.	8B-	8c#	.	.	8EE
8ff	.	[4a	8A	8d	[4D	.	8FF
8ee	.	.	8G	8e	.	.	8GG
=43	=43	=43	=43	=43	=43	=43	=43
8dd	[2d	4a]	4F	4f	4D]	[2A	8AA
8cc#	.	.	.	.	.	.	8BB-
8dd	.	4g	4E	4g	4E	.	8AA
8ee	.	.	.	.	.	.	8GG
[2ff	8d]	4f	2.D	2.a	4F	8A]	[2FF
.	8e	.	.	.	.	8G	.
.	8f	4a	.	.	4D	8F	.
.	8g	.	.	.	.	8E	.
8ff]	[2a	2d	.	.	2A	[2D	8FF]
8ee	.	.	.	.	.	.	8GG
8ff	.	.	8C#	8b-	.	.	8FF
8gg	.	.	8BB	8cc	.	.	8EE
=44	=44	=44	=44	=44	=44	=44	=44
8aa	4a]	2r	2C#	2b-	2r	4D]	8DD
8gg	.	.	.	.	.	.	8EE
8aa	4e	.	.	.	.	4G	8DD
8bb-	.	.	.	.	.	.	8CC#
8aa	4f	8r	2.D	2.a	8r	4F	8DD
8gg	.	8C#	.	.	8b-	.	8EE
8ff	4a	8D	.	.	8a	4D	8FF
8ee	.	8E	.	.	8g	.	8GG
[2dd	4.b-	8F	.	.	8f	4.C#	[2AA
.	.	8A	.	.	8d	.	.
.	.	8G	4E	4g	8e	.	.
.	16a	8B-	.	.	8c#	16D	.
.	16g	.	.	.	.	16E	.
=45	=45	=45	=45	=45	=45	=45	=45
8dd]	8f	2.A	2.F	2.f	2.d	8F	8AA]
8cc#	8e	.	.	.	.	8G	8BB-
8dd	8f	.	.	.	.	8F	8AA
8ee	8g	.	.	.	.	8E	8GG
8dd	8f	.	.	.	.	8F	8AA
8cc	8e	.	.	.	.	8G	8BB-
8b-	2d	4B-	4G	4e	4c	2A	8C
8a	.	.	.	.	.	.	8D
8b	.	4A	4F	4f	4d	.	8C
8cc#	.	.	.	.	.	.	8BB-
8dd	4c#	4G	4E	4g	4e	4B-	8AA
8ee	.	.	.	.	.	.	8GG
=46	=46	=46	=46	=46	=46	=46	=46
8ff	4d	8F	[2D	[2a	8f	4A	8FF
8ee	.	8G	.	.	8e	.	8GG
8ff	4A	4A	.	.	4d	4d	8FF
8gg	.	.	.	.	.	.	8EE
8ff	8d	4D	8D]	8a]	4a	8A	8FF
8ee	8e	.	8C#	8b-	.	8G	8GG
8dd	4.f	2r	8D	8a	2r	4.F	8AA
8cc#	.	.	8E	8g	.	.	8BB-
8dd	.	.	4F	4f	.	.	8AA
8ee	8g	.	.	.	.	8E	8GG
8ff	8a	[4d	4D	4a	[4A	8D	8FF
8dd	8f	.	.	.	.	8F	8AA
=47	=47	=47	=47	=47	=47	=47	=47
8b-	2d	4d]	[2G	[2e	4A]	2A	8C
8a	.	.	.	.	.	.	8D
8b-	.	8g	.	.	8E	.	8C
8cc	.	8f#	.	.	8F	.	8BB
4b-	2.r	4g	8G]	8e]	4E	2.r	4C
.	.	.	8F#	8f	.	.	.
4dd	.	8B-	8G	8e	8c	.	4AA
.	.	8c	8A	8d	8B	.	.
4b-	.	8d	4G	4e	8A	.	4C
.	.	8c	.	.	8B	.	.
4dd	4d	8B-	4F	4f	8c	4A	4AA
.	.	8A	.	.	8d	.	.
=48	=48	=48	=48	=48	=48	=48	=48
8gg	4e	8G	[2E	[2g	8e	4G	8EE
8ff	.	8A	.	.	8d	.	8FF
8gg	4c#	2B-	.	.	2c#	4B-	8EE
8aa	.	.	.	.	.	.	8DD
8gg	4e	.	8E]	8g]	.	4G	8EE
8ff	.	.	8D	8a	.	.	8FF
4.ee	4.g	4G	8E	8g	4e	4.E	4.GG
.	.	.	8F	8f	.	.	.
.	.	4B	4G	4e	4c	.	.
8ff	8a	.	.	.	.	8D	8FF#
8ee	8g	[4e	4E	4g	[4G	8E	8GG
8dd	8f	.	.	.	.	8F#	8AA
=49	=49	=49	=49	=49	=49	=49	=49
8cc#	4e	8e]	[2A	[2d	8G]	4G	8BB-
8b	.	8d	.	.	8A	.	8C
8cc#	4a	8e	.	.	8G	4D	8BB-
8dd	.	8f	.	.	8F	.	8AA
8cc#	1r	4g	8A]	8d]	4E	1r	8BB-
8ee	.	.	8G	8e	.	.	8GG
4.e	.	2c#	8A	8d	2B-	.	4.G
.	.	.	8B-	8c#	.	.	.
.	.	.	4A	4d	.	.	.
8f	.	.	.	.	.	.	8F
8g	.	4c#	4E	4g	4B-	.	8E
16a	.	.	.	.	.	.	16D
16b-	.	.	.	.	.	.	16C#
=50	=50	=50	=50	=50	=50	=50	=50
[1.a	8d	[2d	2.F	2.f	[2A	8A	[1.D
.	8e	.	.	.	.	8G	.
.	8f	.	.	.	.	8F	.
.	8g	.	.	.	.	8E	.
.	2.a	8d]	.	.	8A]	2.D	.
.	.	8B	.	.	8c	.	.
.	.	8c#	8E	8g	8B-	.	.
.	.	8d	8D	8a	8A	.	.
.	.	8e	8C#	8b-	8G	.	.
.	.	8c#	8AA	8dd	8B-	.	.
.	4g	8d	8BB	8cc	8A	4E	.
.	.	8e	8C#	8b-	8G	.	.
=51	=51	=51	=51	=51	=51	=51	=51
1.a_	4f	4A	8D	8a	4d	4F	1.D_
.	.	.	8C#	8b-	.	.	.
.	4e	4r	8D	8a	4r	4G	.
.	.	.	8E	8g	.	.	.
.	2.d	8D	[2F	[2f	8a	2.A	.
.	.	8E	.	.	8g	.	.
.	.	8F	.	.	8f	.	.
.	.	8G	.	.	8e	.	.
.	.	[2A	8F]	8f]	[2d	.	.
.	.	.	8E	8g	.	.	.
.	8c#	.	8F	8f	.	8B-	.
.	8B	.	8G	8e	.	8c	.
=52	=52	=52	=52	=52	=52	=52	=52
1.a_	2c#	8A]	4A	4d	8d]	2B-	1.D_
.	.	8B-	.	.	8c#	.	.
.	.	8A	4r	4r	8d	.	.
.	.	8G	.	.	8e	.	.
.	2.d	[2F	8DD	8aa	[2f	2.A	.
.	.	.	8EE	8gg	.	.	.
.	.	.	8FF	8ff	.	.	.
.	.	.	8GG	8ee	.	.	.
.	.	8F]	[2AA	[2dd	8f]	.	.
.	.	8E	.	.	8g	.	.
.	4e	8D	.	.	8a	4G	.
.	.	8C#	.	.	8b-	.	.
=53	=53	=53	=53	=53	=53	=53	=53
1.a_	4f	8D	4AA]	4dd]	8a	4F	1.D_
.	.	8A	.	.	8d	.	.
.	4e	8B	4GG	4ee	8c	4G	.
.	.	8c#	.	.	8B-	.	.
.	4f	8d	4FF	4ff	8A	4F	.
.	.	8e	.	.	8G	.	.
.	4g	8d	4EE	4gg	8A	4E	.
.	.	8c#	.	.	8B-	.	.
.	4f	4d	8FF	8ff	4A	4F	.
.	.	.	8AA	8dd	.	.	.
.	4e	4G	8BB	8cc	4e	4G	.
.	.	.	8C#	8b-	.	.	.
=54	=54	=54	=54	=54	=54	=54	=54
4a]	4d	4F#	[1.D	[1.a	4f	4A	4D]
8g	4r	4.B-	.	.	4.c#	4r	8E
8f#	.	.	.	.	.	.	8F
8g	4e	.	.	.	.	4G	8E
8a	.	8A	.	.	8d	.	8D
8b-	4.r	8G	.	.	8e	4.r	8C#
8cc	.	8A	.	.	8d	.	8BB
[2dd	.	8B-	.	.	8c#	.	[2AA
.	8f#	8c	.	.	8B	8F	.
.	8g	8B-	.	.	8c#	8E	.
.	8a	8A	.	.	8d	8D	.
=55	=55	=55	=55	=55	=55	=55	=55
4dd]	4b-	8G	1.D_	1.a_	8e	4C#	4AA]
.	.	8D	.	.	8a	.	.
4cc	4a	8E	.	.	8g	4D	4BB
.	.	8F#	.	.	8f	.	.
4b-	4g	8G	.	.	8e	4E	4C#
.	.	8A	.	.	8d	.	.
4a	4f#	8B-	.	.	8c#	4F	4D
.	.	8c	.	.	8B	.	.
8g	2e	8B-	.	.	8c#	2G	8E
8a	.	8A	.	.	8d	.	8D
4b-	.	8G	.	.	8e	.	4C#
.	.	16F#	.	.	16f#	.	.
.	.	16E	.	.	16g	.	.
=56	=56	=56	=56	=56	=56	=56	=56
1.a	8r	8F#	2D_	2a_	8f#	8r	1.D
.	8e	8G	.	.	8e	8G	.
.	8f#	4A	.	.	4d	8F#	.
.	8g	.	.	.	.	8E	.
.	1f#	1D	8D]	8a]	1a	1F#	.
.	.	.	16AA	16dd	.	.	.
.	.	.	16GG	16ee	.	.	.
.	.	.	16FF#	16ff#	.	.	.
.	.	.	16GG	16ee	.	.	.
.	.	.	8AA	8dd	.	.	.
.	.	.	2DD	2aa	.	.	.
==	==	==	==	==	==	==	==
*-	*-	*-	*-	*-	*-	*-	*-
!!!RWG1: This file contains only pitch and duration data.
!!!RWG2: Transposing instruments are not transposed.
!!!RWG3: Spines may have incompatible meters.
!!!RWG4: Durations of rests and tied notes may be interpreted.
!!!RWG: Key is interpreted using the Humdrum key tool.
!!!AFT: stage1
!!!END: 1997/04/15/
!!format changes:
!!content changes:
!!public access: complete
!!!KEY: 2901031576
!!!EMD: Converted from MuseData to Humdrum Dec 19, 2000, by Andreas Kornstaedt using muse2kern.
